X:1
T: 
T:Og'nor per voi sospiro 
T:Philippe Verdelot (c. 1485-1530)
T:509
T:No. 3, Il secondo libro de madrigali, 1534
C:Philippe Verdelot
%%score [ 1 2 3 4 ]
L:1/8
Q:1/2=96
M:4/2
K:F
V:1 treble nm="Sopran" snm="S"
V:2 treble nm="Alt" snm="A"
V:3 treble-8 nm="Tenor" snm="T"
V:4 bass nm="Bass" snm="B"
V:1
 G16 | G4 G4 G4 G4 | A8 B8 | G16 | F8 z4 B4 | B4 B4 A4 c4- | c2 B2 A2 G2 F4 G4 | G4 ^F4 G8 | B16 | %9
w: Og’-|nor per voi so-|spi- ro|don-|na poi-|ch'io non o- soa|_ _ _ _ di- sco-|pri- * re|mia|
 A8 z8 | z4 A4 G4 F4 | E8 D8 | z16 | z4 B4 A4 G4- | G4 ^F4 G8 | z4 d4 d6 c2 | B4 A4 B8 | A16- | %18
w: fè|e'l mio mar-|ti- re,||e'l mio mar-|* ti- re|e so che|voi scor- ge-|te|
 A16 | z8 z4 A4 | A4 A4 A8 | B8 G8- | G8 F8 | B8 B8 | A8 B8 | z4 d4 c4 B4 | A4 G4 A8 | %27
w: _|ben|mil- le vol-|t'il gior-|* n'il|mio do-|lo- re|ma pur co-|sì vo- le-|
 G4 B4 A4 G4 | F4 G8 ^F4 | G8 z4 A4 | A4 A4 G4 G4 | c6 B2 A4 A4 | G16 | E8 z4 A4 | B8 A8 | %35
w: te, ma pur co-|sì vo- le-|te che|con- su- man- do|va- d’i’a po- c’a|po-|co ta-|cen- do,|
 z8 z4 B4 | B4 B4 A4 G4- | G4 ^F4 G8 | z4 D4 D2 E2 F2 G2 | A2 B2 c6 B2 A2 G2 | F4 B4 A4 G4- | %41
w: in|a- mo- ro- so|_ fuo- co,|in a- * * *||* mo- ro- so|
 G4 ^F4 G8- | G16- | G16- | G16- | G16- | G16- | G16 |] %48
w: _ fuo- co.|_||||||
V:2
 D16 | D4 _E4 D4 E4 | F8 D4 _E4- | E2 D2 D8 C4 | D8 F8 | F4 F4 F4 E4- | E4 E4 D4 C4 | D8 B,8 | %8
w: Og’-|nor per voi so-|spi- ro don-||na poi-|ch'io non o- so|_ a di- sco-|pri- re|
 z4 D6 C2 D2 E2 | F8 z8 | z4 F4 E4 D4- | D4 ^C4 D8 | z16 | z4 F4 F4 D4 | D8 B,4 D4 | D4 D4 B,6 C2 | %16
w: mia _ _ _|fè|e'l mio mar-|* ti- re,||e'l mio mar-|ti- re e|so che voi _|
 D2 E2 F8 E4 | F4 F4 F4 F4 | E4 F6 E2 D4- | D4 ^C4 D4 F4 | F4 F4 F8 | D4 _E8 D4- | D4 C4 D4 D4 | %23
w: _ _ scor- ge-|te, e so che|voi scor- ge- *|* * te ben|mil- le vol-|t'il gior- *|* * no il|
 D4 D4 F8 | F8 z4 D4- | D2 E2 F2 G2 A4 G4 | F4 G8 ^F4 | G4 F4 F4 D4 | D4 C4 D8 | D8 z4 F4 | %30
w: mio do- lo-|re ma|_ _ _ _ pur co-|sì vo- le-|te, ma pur co-|sì vo- le-|te che|
 F4 F4 E4 E4 | E4 G4 F4 F4 | D16 | C8 z4 F4 | G8 F8 | z8 z4 F4 | F4 F4 F4 D4 | D8 D8 | G8 F8 | %39
w: con- su- man- do|va- d’i’a po- c’a|po-|co ta-|cen- do,|in|a- mo- ro- so-|fuo- co,|in a-|
 F8 E8 | D4 F6 E2 D2 C2 | D8 D8 | z4 _E4 E4 D4 | _E4 E4 D8 | C4 C4 C4 D4 | _E4 D4 E8- | E8 D8- | %47
w: mo- ro-|so fuo- * * *|* co,|in a- mo-|ro- so fuo-|co, in a- mo-|ro- so fuo-|* co.|
 D16 |] %48
w: _|
V:3
 B16 | B4 c4 B4 B4 | c4 d6 c2 B4- | B2 A2 G2 F2 G8 | A8 d8 | d4 d4 c4 c4 | c6 B2 A4 G4 | A8 G8- | %8
w: Og’-|nor per voi so-|spi- ro _ don-||na poi-|ch'io non o- soa|di- * * sco-|pri- re|
 G8 z8 | d16 | c8 z8 | z8 z4 f4 | e4 d8 ^c4 | d4 d4 c4 B4 | A8 G8 | B6 c2 d4 G4 | B4 c8 B4 | %17
w: _|mia|fè|e'l|mio mar- ti-|re, e'l mio mar-|ti- re|e _ so che|voi scor- ge-|
 c4 d4 d8 | c4 d6 e2 f4 | e8 d8 | z4 c4 c4 c4 | B4 G6 A2 B4- | B4 A2 G2 A4 B4- | B2 c2 d8 c2 B2 | %24
w: te, e so|che voi _ scor-|ge- te|ben mil- le|vol- t'il _ gior-|* * * * n'il|_ _ mio do- *|
 c8 B8- | B8 z8 | z16 | z4 d4 c4 B4 | A4 G4 A8 | G8 z4 c4 | c4 c4 c4 G4 | z4 c4 c4 c4- | %32
w: lo- re|_||ma pur co-|sì vo- le-|te che|con- su- man- do|va- d'i'a po-|
 c4 =B2 A2 B8 | c8 z8 | z8 z4 A4 | B8 A4 d4 | d4 d4 c4 B4 | A8 G8 | B8 A8 | A6 B2 c8 | %40
w: * c'a _ po-|co|a-|man- do in|a- mo- ro- so-|fuo- co,|in a-|mo- * *|
 A4 d4 c4 B4 | A8 G8- | G8 z8 | z4 c4 c4 B4 | _e12 d4 | c4 =B4 c8- | c8 =B8- | B16 |] %48
w: ro- so fuo- *|* co,|_|in a- mo-|ro- so|fuo- * *|* co.|_|
V:4
 G,16 | G,4 C,4 G,4 G,4 | F,8 G,8 | _E,16 | D,8 B,,8 | B,,4 B,,4 F,4 C,4- | C,4 C,4 D,4 _E,4 | %7
w: Og’-|nor per voi so-|spi- ro|don-|na poi-|ch'io non o- so|_ a di- sco-|
 D,8 G,,8- | G,,8 z8 | z4 D,6 E,2 F,2 G,2 | A,8 z8 | z8 z4 D,4 | G,4 F,4 E,8 | D,4 B,,4 F,4 G,4 | %14
w: pri- re||mia _ _ _|fè|e'l|mio mar- ti-|re, e'l mio mar-|
 D,8 G,,4 G,4 | G,8 G,8 | G,4 F,4 G,8 | F,4 D,6 E,2 F,2 G,2 | A,4 D,4 F,6 G,2 | A,8 D,8 | %20
w: ti- re e|so che|voi scor- ge-|te, che _ _ _|voi scor- ge- *|* te|
 z4 F,4 F,4 F,4 | G,4 G,4 _E,8- | E,8 D,8 | G,8 F,4 F,4 | F,8 B,,8- | B,,8 z8 | z16 | %27
w: ben mil- le|vol- t'il gior-|* no|il mio do-|lo- re|_||
 z4 B,,4 F,4 G,4 | D,4 _E,4 D,8 | G,8 z4 F,4 | F,4 F,4 C,4 C,4 | C,4 C,4 F,4 F,4 | G,16 | C,8 z8 | %34
w: ma pur co-|sì vo- le-|te che|con- su- man- do|va- d'i'a po- c'a|po-|co|
 z8 z4 D,4 | G,8 F,4 B,,4 | B,,4 B,,4 F,4 G,4 | D,8 G,,4 G,4 | G,4 G,4 D,6 E,2 | F,6 E,D, C,8 | %40
w: a-|man- do in|a- mo- ro- so-|fuo- co, in|a- mo- ro- *||
 D,4 B,,4 F,4 G,4 | D,8 G,,8 | z4 C,4 C,4 =B,,4 | C,4 C,4 G,8 | C,4 C,4 C,4 =B,,4 | C,4 G,4 C,8- | %46
w: * * * so|fuo- co,|in a- mo-|ro- so fuo-|co, in a- mo-|ro- so fuo-|
 C,8 G,8- | G,16 |] %48
w: * co.|_|

